X:1
M:6/8
K:F
A2B |cac BgB|A2f c2B|A^GA dcA|c3 B3|
b2a g2f|ege d2f| [1edc =Bcd|c3 :|
[2edc cde|f3 ||A2B |cdc fed|cdc A2c|fef agf|f3 e2f|
e2f gfa|f3 d3/2e/2|faa afd|ded c3||